X:1
T:Lux Prima (Gounod), 87.87.77
T:Lux Prima (Gounod), 87.87.77
T:Charles François Gounod, 1872
T:Public Domain Courtesy of the Cyber Hymnal™
C:Charles François Gounod, 1872
Z:Public Domain
Z:Courtesy of the Cyber Hymnal™
%%score ( 1 2 ) ( 3 4 )
L:1/8
Q:1/4=110
M:4/4
K:G
V:1 treble 
V:2 treble 
V:3 bass 
V:4 bass 
V:1
 [DG]2 [DG]2 [EG]2 (BA) | [DG]2 [DF]2 [DG]2 D2 | [DB]2 [^DB]2 [EB]2 ([B=d][Ac]) | %3
 [GB]2 [FA]2 [GB]4 | [Gd]2 G2 [Gc]2 [Fc]2 | ([GB][FA]) [GB][Ac] [GB]2 [FA]2 | %6
 [FA]2 [GB]2 [Ec]2 (BA) | [DG]2 [FA]2 [GB]4 | [GB]2 [Gc]2 [Gd]2 (cB) | [GA]2 [GB]2 [Gc]4 | %10
 [^Ge]2 [Gd]2 [Ac]2 (BA) | [GB]2 [FA]2 G4 |] %12
V:2
 x6 E2 | x6 D2 | x8 | x8 | x2 G2 x4 | x8 | x6 F2 | x8 | x6 G2 | x8 | x6 =G2 | x4 G4 |] %12
V:3
 [G,B,]2 [F,B,]2 [E,B,]2 (DC) | [D,B,]2 [D,A,]2 [G,B,]2 [G,B,]2 | [G,B,]2 [F,A,]2 [E,G,]2 [C,E]2 | %3
 [D,D]2 [D,D]2 [G,D]4 | [B,D]2 [B,D]2 [A,E]2 [A,D]2 | [G,D]2 [G,D]2 [D,D]2 [D,D]2 | %6
 [D,C]2 [D,B,]2 [D,A,]2 [D,C]2 | [D,B,]2 [D,D]2 [G,D]4 | [G,D]2 [G,E]2 [G,=F]2 (ED) | %9
 [G,C]2 [=F,D]2 [E,C]4 | [E,B,]2 [E,B,]2 [A,,C]2 ([B,,D][C,E]) | [D,D]2 [D,C]2 [G,,B,]4 |] %12
V:4
 x6 C,2 | x8 | x8 | x8 | x8 | x8 | x8 | x8 | x6 G,2 | x8 | x8 | x8 |] %12

